svgs/mastodon.svg

<svg viewBox="0 0 192 192" xml:space="preserve" style="fill-rule:evenodd;clip-rule:evenodd;stroke-linejoin:round;stroke-miterlimit:2" xmlns="http://www.w3.org/2000/svg"><path d="M2004.3 228h-.57c-19.87.163-38.97 2.491-50.13 7.601-.5.213-24.58 10.78-24.58 46.99 0 7.394-.14 16.236.09 25.612.4 16.438 2 32.742 7.21 45.957 5.67 14.406 15.47 25.335 32.04 29.72 14.11 3.737 26.23 4.503 35.99 3.967h.01c18.41-1.021 28.71-6.695 28.71-6.695a6.018 6.018 0 0 0 3.16-5.558l-.56-12.178a5.984 5.984 0 0 0-2.56-4.646 5.995 5.995 0 0 0-5.24-.804s-11.04 3.471-23.45 3.047c-4.87-.167-9.84-.357-14.18-1.544-3.91-1.069-7.14-3.148-8.76-7.347 5.59.951 13.45 2.021 22.27 2.425 10.49.481 20.33-.592 30.33-1.785 12.37-1.477 23.76-6.688 31.4-13.091 5.8-4.865 9.47-10.509 10.5-15.801v-.001c3.23-16.623 3.05-40.428 3.04-41.319-.01-36.286-24.23-46.801-24.58-46.951-11.14-5.105-30.25-7.436-50.14-7.599Zm59.9 93.58.09-.471c3.1-15.948 2.73-38.451 2.73-38.451v-.067c0-27.633-17.49-36.04-17.49-36.04-.01-.008-.03-.016-.05-.024-10.05-4.616-27.33-6.379-45.26-6.527h-.41c-17.93.148-35.2 1.911-45.25 6.527l-.06.024s-17.48 8.407-17.48 36.04c0 7.308-.15 16.047.09 25.314v.004c.36 14.96 1.64 29.826 6.37 41.852 4.27 10.836 11.49 19.221 23.95 22.519 12.65 3.349 23.51 4.066 32.26 3.585 9.61-.533 16.56-2.512 20.36-3.891l-.04-.739c-5.11 1.018-12.33 2.033-20 1.771-16.29-.559-32.69-3.029-35.34-23.016a40.2 40.2 0 0 1-.35-5.4 6 6 0 0 1 2.3-4.719 5.998 5.998 0 0 1 5.13-1.109s12.59 3.066 28.55 3.798c9.81.45 19.01-.598 28.36-1.713 9.88-1.18 19.01-5.258 25.11-10.372 3.36-2.814 5.83-5.834 6.43-8.895Zm-54.2-36.244c.68-2.603 3.99-12.807 14.27-12.807 10.68 0 10.54 12.137 10.54 12.137v34.224c0 3.311 2.69 6 6 6s6-2.689 6-6v-34.406s-.68-23.955-22.54-23.955c-10 0-16.43 5.292-20.4 10.778-4.07-5.273-10.62-10.293-20.78-10.293-6.92 0-11.53 2.138-14.68 4.857-6.67 5.747-6.86 14.826-6.81 16.949l.02.455s-.01-.161-.02-.455v-.052 36.342c0 3.311 2.69 6 6 6s6-2.689 6-6v-36.342c0-.169-.01-.338-.02-.507 0 0-.5-4.577 2.66-7.298 1.45-1.252 3.66-1.949 6.85-1.949 10.65 0 14.18 9.844 14.91 12.386v20.233c0 3.311 2.69 6 6 6s6-2.689 6-6v-20.297Z" style="fill-rule:evenodd;clip-rule:evenodd;stroke-linejoin:round;stroke-miterlimit:2" transform="translate(-1908 -212)"/></svg>

<?xml version="1.0" encoding="UTF-8" standalone="no"?>
<svg
   width="100%"
   height="100%"
   viewBox="0 0 192 192"
   version="1.1"
   xml:space="preserve"
   style="fill-rule:evenodd;clip-rule:evenodd;stroke-linejoin:round;stroke-miterlimit:2;"
   id="svg10"
   sodipodi:docname="mastodon.svg"
   inkscape:version="1.2.1 (9c6d41e410, 2022-07-14)"
   xmlns:inkscape="http://www.inkscape.org/namespaces/inkscape"
   xmlns:sodipodi="http://sodipodi.sourceforge.net/DTD/sodipodi-0.dtd"
   xmlns="http://www.w3.org/2000/svg"
   xmlns:svg="http://www.w3.org/2000/svg"><defs
   id="defs14" /><sodipodi:namedview
   id="namedview12"
   pagecolor="#ffffff"
   bordercolor="#000000"
   borderopacity="0.25"
   inkscape:showpageshadow="2"
   inkscape:pageopacity="0.0"
   inkscape:pagecheckerboard="0"
   inkscape:deskcolor="#d1d1d1"
   showgrid="false"
   inkscape:zoom="5.3489583"
   inkscape:cx="96.186952"
   inkscape:cy="95.906524"
   inkscape:window-width="2552"
   inkscape:window-height="1303"
   inkscape:window-x="4"
   inkscape:window-y="36"
   inkscape:window-maximized="0"
   inkscape:current-layer="svg10" />
    <path
   d="M2004.3,228L2003.73,228C1983.86,228.163 1964.76,230.491 1953.6,235.601C1953.1,235.814 1929.02,246.381 1929.02,282.591C1929.02,289.985 1928.88,298.827 1929.11,308.203C1929.51,324.641 1931.11,340.945 1936.32,354.16C1941.99,368.566 1951.79,379.495 1968.36,383.88C1982.47,387.617 1994.59,388.383 2004.35,387.847C2004.36,387.847 2004.36,387.847 2004.36,387.847C2022.77,386.826 2033.07,381.152 2033.07,381.152C2035.1,380.06 2036.33,377.899 2036.23,375.594L2035.67,363.416C2035.59,361.554 2034.64,359.838 2033.11,358.77C2031.59,357.703 2029.65,357.406 2027.87,357.966C2027.87,357.966 2016.83,361.437 2004.42,361.013C1999.55,360.846 1994.58,360.656 1990.24,359.469C1986.33,358.4 1983.1,356.321 1981.48,352.122C1987.07,353.073 1994.93,354.143 2003.75,354.547C2014.24,355.028 2024.08,353.955 2034.08,352.762C2034.08,352.762 2034.08,352.762 2034.08,352.762C2046.45,351.285 2057.84,346.074 2065.48,339.671C2071.28,334.806 2074.95,329.162 2075.98,323.87L2075.98,323.869C2079.21,307.246 2079.03,283.441 2079.02,282.55C2079.01,246.264 2054.79,235.749 2054.44,235.599C2043.3,230.494 2024.19,228.163 2004.3,228ZM2064.2,321.58L2064.29,321.109C2067.39,305.161 2067.02,282.658 2067.02,282.658C2067.02,282.635 2067.02,282.613 2067.02,282.591C2067.02,254.958 2049.53,246.551 2049.53,246.551C2049.52,246.543 2049.5,246.535 2049.48,246.527C2039.43,241.911 2022.15,240.148 2004.22,240C2004.22,240 2004.02,240 2003.81,240C1985.88,240.148 1968.61,241.911 1958.56,246.527C1958.54,246.535 1958.52,246.543 1958.5,246.551C1958.5,246.551 1941.02,254.958 1941.02,282.591C1941.02,289.899 1940.87,298.638 1941.11,307.905C1941.11,307.907 1941.11,307.908 1941.11,307.909C1941.47,322.869 1942.75,337.735 1947.48,349.761C1951.75,360.597 1958.97,368.982 1971.43,372.28C1984.08,375.629 1994.94,376.346 2003.69,375.865C2013.3,375.332 2020.25,373.353 2024.05,371.974C2024.05,371.974 2024.01,371.235 2024.01,371.235C2018.9,372.253 2011.68,373.268 2004.01,373.006C2004.01,373.006 2004.01,373.006 2004.01,373.006C1987.72,372.447 1971.32,369.977 1968.67,349.99C1968.44,348.298 1968.32,346.489 1968.32,344.59C1968.32,342.748 1969.17,341.008 1970.62,339.871C1972.07,338.733 1973.96,338.324 1975.75,338.762C1975.75,338.762 1988.34,341.828 2004.3,342.56C2004.3,342.56 2004.3,342.56 2004.3,342.56C2014.11,343.01 2023.31,341.962 2032.66,340.847C2042.54,339.667 2051.67,335.589 2057.77,330.475C2061.13,327.661 2063.6,324.641 2064.2,321.58ZM2010,285.336C2010.68,282.733 2013.99,272.529 2024.27,272.529C2034.95,272.529 2034.81,284.666 2034.81,284.666C2034.81,284.575 2034.81,318.89 2034.81,318.89C2034.81,322.201 2037.5,324.89 2040.81,324.89C2044.12,324.89 2046.81,322.201 2046.81,318.89L2046.81,284.575C2046.81,284.545 2046.81,284.515 2046.81,284.484C2046.81,284.484 2046.13,260.529 2024.27,260.529C2014.27,260.529 2007.84,265.821 2003.87,271.307C1999.8,266.034 1993.25,261.014 1983.09,261.014C1976.17,261.014 1971.56,263.152 1968.41,265.871C1961.74,271.618 1961.55,280.697 1961.6,282.82L1961.62,283.275C1961.62,283.275 1961.61,283.114 1961.6,282.82L1961.6,282.768L1961.6,319.11C1961.6,322.421 1964.29,325.11 1967.6,325.11C1970.91,325.11 1973.6,322.421 1973.6,319.11L1973.6,282.768C1973.6,282.599 1973.59,282.43 1973.58,282.261C1973.58,282.261 1973.08,277.684 1976.24,274.963C1977.69,273.711 1979.9,273.014 1983.09,273.014C1993.74,273.014 1997.27,282.858 1998,285.4C1998,285.403 1998,305.633 1998,305.633C1998,308.944 2000.69,311.633 2004,311.633C2007.31,311.633 2010,308.944 2010,305.633L2010,285.336Z"
   id="path4"
   style="fill-rule:evenodd;clip-rule:evenodd;stroke-linejoin:round;stroke-miterlimit:2"
   transform="translate(-1908,-212)"
   inkscape:label="mastodon_form" />
</svg>
